X:1
T:Je ne mange point de porc
T:Je ne mange point de porc
T:Claudin de Sermisy
C:Claudin de Sermisy
%%score [ 1 2 3 ]
L:1/8
Q:1/4=240
M:4/4
K:C
V:1 treble-8 nm="T1."
V:2 treble-8 nm="T2."
V:3 bass nm="B."
V:1
"^Allegro maestoso"!f! z4 E2 G2 | c4 c4 | e6 c2 | A2 A2 z4 | c4 c4 | f4 A4 | A4 F4 | F8 | z8 | %9
w: Ma- jes-|tät- sche|Son- nen-|ros- se|Durch des|Lich- tes|wei- ten|Raum||
 d6 d2 | ^d6 d2 | e4 d4 | c4 z4 | z4 z2 e2 | f2 d2 B2 F2 | E2 E2 z4 | z4 z2 ee | f2 d2 B2 F2 | %18
w: Lei- tet|Phö- bus'|gold- ner|Zaum,|...sein|ras- seln- des Ge-|schos- se;|Sei- ne|weis- sen Son- nen-|
 E2 E2 z4 | z8 |!pp! e4 e4 | d4 f4 | c4 d4 | e8- |!ppp! e2 z2 e2 f2 | g4 z2 G2 | G4 B4 | c4 z4 |] %28
w: ros- se,||Un- ter|Lieb und|Har- mo-|nie|* Ha! wie|gern ver-|gaß er|sie!|
V:2
!f! z8 | z4 E2 G2 | c4 c4 | e6 c2 | A2 A2 z4 | c4 c4 | f4 A4 | A4 F4 | F8 | A6 A2 | A6 A2 | c4 B4 | %12
w: |Ma- jes-|tät- sche|Son- nen-|ros- se|Durch des|Lich- tes|wei- ten|Raum|Lei- tet|Phö- bus'|gold- ner|
 c4 z4 | z8 | z4 z2 B2 | c2 G2 E2 C2 | G2 G2 z4 | z4 z2 BB | c2 G2 E2 C2 | G2 G2 z4 |!pp! G4 G4 | %21
w: Zaum,||...sein|ras- seln- des Ge-|schos- se;|Sei- ne|ras- seln- den Ge-|schos- se|Un- ter|
 A4 A4 | G4 G4 | G8- |!ppp! G2 z2 c2 c2 | c4 z2 E2 | E4 F4 | E4 z4 |] %28
w: Lieb und|Har- mo-|nie|* Ha! wie|gern ver-|gaß er|sie!|
V:3
!f! z8 | z8 | z4 E,2 G,2 | C4 C4 | E6 C2 | A,2 A,2 z4 | C4 C4 | F4 A,4 | A,4 F,4 | F,4 F,2 F,2 | %10
w: ||Ma- jes-|tät- sche|Son- nen-|ros- se|Durch des|Lich- tes|wei- ten|Raum Lei- tet|
 ^F,6 F,2 | G,4 G,4 | C,4 z4 | G,2 G,2 G,4- | G,8- | G,2 z2 z4 | G,2 G,2 G,4- | G,6 G,2 | %18
w: Phö- bus'|gold- ner|Zaum,|Völ- ker stürtzt,|||Völ- ker stürtzt|* sein|
 C,2 G,2 E,2 C,2 | G,2 G,2 z4 |!pp! C,4 C,4 | F,4 D,4 | E,4 D,4 | C,8- |!ppp! C,2 z2 C,2 D,2 | %25
w: ras- seln- des Ge-|schos- se;|Un- ter|Lieb und|Har- mo-|nie|* Ha! wie|
 E,4 z2 G,2 | G,4 G,4 | C,4 z4 |] %28
w: gern ver-|gaß er|sie!|

